media/service-01.svg

<svg width="100" height="100" viewBox="0 0 100 100" fill="none" xmlns="http://www.w3.org/2000/svg">
<circle cx="50" cy="50" r="50" fill="#0F75BC" fill-opacity="0.12"/>
<g clip-path="url(#clip0)">
<path d="M52.9467 62.8267C53.2804 63.077 53.7451 63.0541 54.0526 62.7721L64.4526 53.2387C64.8053 52.9152 64.829 52.3669 64.5054 52.0141C64.1819 51.6614 63.6336 51.6377 63.2808 51.9613L53.4112 61.0067L50.52 58.84C50.1371 58.5528 49.5939 58.6304 49.3067 59.0133C49.0195 59.3963 49.0971 59.9395 49.48 60.2267L52.9467 62.8267Z" fill="#0F75BC"/>
<path d="M24.8667 37C26.0919 37.0888 27.2676 37.52 28.2597 38.2445C28.7647 38.6179 29.2163 39.0585 29.6021 39.5541C26.2707 45.4153 24.3935 50.9672 24.0451 56.0589C23.7071 61.1717 25.4503 66.204 28.8785 70.0122C32.1093 73.659 36.6948 75.8207 41.5639 75.9922C41.7675 75.9991 41.9703 76.0017 42.1705 76.0017C46.9832 75.997 51.597 74.0811 54.9972 70.6752C58.1097 71.1479 61.2894 70.5159 63.9845 68.889L70.0807 74.9843C71.4455 76.2651 73.5807 76.2312 74.9042 74.9076C76.2277 73.5841 76.2616 71.449 74.9808 70.0841L68.8855 63.988C71.4282 59.7025 71.4732 54.3817 69.0036 50.0538C66.534 45.7259 61.9302 43.0578 56.9472 43.0667C56.8302 43.0667 56.7167 43.0814 56.6005 43.084C53.1773 36.2578 48.7302 29.9954 43.4133 24.5139C43.0874 24.1847 42.6433 23.9996 42.1801 24H42.1688C41.711 24.0037 41.2739 24.1911 40.9555 24.52C38.8067 26.7278 36.7957 29.0655 34.9339 31.5201C33.9302 29.4501 33.4494 27.1656 33.5333 24.8667C33.5333 24.388 33.1453 24 32.6667 24C32.188 24 31.8 24.388 31.8 24.8667C31.8 35.0665 25.1613 35.2667 24.8667 35.2667C24.388 35.2667 24 35.6547 24 36.1333C24 36.612 24.388 37 24.8667 37ZM73.7579 71.3087C74.3873 71.9926 74.3654 73.0511 73.7082 73.7082C73.0511 74.3654 71.9926 74.3873 71.3087 73.7579L65.4466 67.8958C66.3617 67.1844 67.1844 66.3617 67.8958 65.4466L73.7579 71.3087ZM69.0935 56.9472C69.0935 61.8604 66.1339 66.2897 61.5947 68.1698C57.0555 70.0499 51.8307 69.0105 48.3567 65.5363C44.8827 62.062 43.8436 56.8371 45.724 52.2981C47.6045 47.759 52.034 44.7997 56.9472 44.8C63.6526 44.8076 69.0864 50.2418 69.0935 56.9472ZM42.1835 25.7377C47.2133 30.9273 51.4501 36.8304 54.7571 43.2565C48.3673 44.2703 43.5277 49.5681 43.0944 56.0233C42.6612 62.4786 46.7496 68.3756 52.9467 70.2341C49.8185 72.9628 45.7706 74.4015 41.6219 74.2589C37.2241 74.1025 33.0829 72.1489 30.1655 68.8543C27.0508 65.3946 25.467 60.8227 25.7741 56.1776C26.0878 51.5912 27.7336 46.5775 30.6378 41.2623C31.4618 43.2009 31.8582 45.2943 31.8 47.4C31.8 47.8786 32.188 48.2667 32.6667 48.2667C33.1453 48.2667 33.5333 47.8786 33.5333 47.4C33.5333 37.1881 40.1876 37 40.4667 37C40.9453 37 41.3333 36.612 41.3333 36.1333C41.3333 35.6547 40.9453 35.2667 40.4667 35.2667C39.2414 35.1778 38.0658 34.7466 37.0737 34.0221C36.6736 33.7239 36.3074 33.3827 35.9817 33.0047C37.8905 30.4515 39.9621 28.0241 42.1835 25.7377ZM32.6667 30.6595C33.0065 31.6575 33.4938 32.599 34.1123 33.4527C34.1254 33.4752 34.1399 33.497 34.1556 33.5177C34.9725 34.6256 36.0422 35.5223 37.2756 36.1333C35.0632 37.2607 33.4008 39.2351 32.6667 41.6072C32.3553 40.7039 31.9239 39.8466 31.384 39.0583C31.3552 39.004 31.3204 38.9531 31.28 38.9067C30.4525 37.7294 29.3452 36.7763 28.0577 36.1333C30.2702 35.0059 31.9325 33.0316 32.6667 30.6595Z" fill="#0F75BC"/>
<path d="M39.7549 69.9472C31.0042 68.356 30.0977 58.9917 30.0665 58.5939C30.0265 58.1152 29.6061 57.7596 29.1274 57.7996C28.6488 57.8395 28.2932 58.26 28.3331 58.7386C28.3427 58.8487 29.3731 69.8215 39.4421 71.6519C39.4941 71.6616 39.5469 71.6665 39.5998 71.6667C40.0484 71.6666 40.4228 71.3242 40.4629 70.8775C40.503 70.4307 40.1955 70.0271 39.7541 69.9472H39.7549Z" fill="#0F75BC"/>
</g>
<defs>
<clipPath id="clip0">
<rect width="52" height="52" fill="white" transform="translate(24 24)"/>
</clipPath>
</defs>
</svg>

<svg xmlns="http://www.w3.org/2000/svg" xmlns:xlink="http://www.w3.org/1999/xlink" width="100" height="100" viewBox="0 0 100 100"><defs><clipPath id="a"><rect width="52" height="52" transform="translate(24 24)" fill="#0f75bc"/></clipPath></defs><g transform="translate(-605 -352)"><circle cx="50" cy="50" r="50" transform="translate(605 352)" fill="#ecf6fd"/><g transform="translate(605 352)" clip-path="url(#a)"><path d="M52.947,62.827a.867.867,0,0,0,1.106-.055l10.4-9.533a.867.867,0,1,0-1.172-1.277l-9.87,9.045L50.52,58.84a.867.867,0,0,0-1.04,1.387Z" fill="#0f75bc"/><path d="M24.867,37a6.557,6.557,0,0,1,3.393,1.244,6.9,6.9,0,0,1,1.342,1.31c-3.331,5.861-5.209,11.413-5.557,16.5a18.984,18.984,0,0,0,4.833,13.953,17.784,17.784,0,0,0,12.685,5.98c.2.007.406.009.607.009A18.15,18.15,0,0,0,55,70.675a13.475,13.475,0,0,0,8.987-1.786l6.1,6.1a3.467,3.467,0,0,0,4.9-4.9l-6.1-6.1A13.853,13.853,0,0,0,56.947,43.067c-.117,0-.23.015-.347.017a74.886,74.886,0,0,0-13.187-18.57A1.733,1.733,0,0,0,42.18,24h-.011a1.708,1.708,0,0,0-1.213.52,75.154,75.154,0,0,0-6.022,7,14.073,14.073,0,0,1-1.4-6.653.867.867,0,1,0-1.733,0c0,10.2-6.639,10.4-6.933,10.4a.867.867,0,1,0,0,1.733ZM73.758,71.309a1.733,1.733,0,0,1-2.449,2.449L65.447,67.9A13.936,13.936,0,0,0,67.9,65.447ZM69.093,56.947A12.147,12.147,0,1,1,56.947,44.8,12.147,12.147,0,0,1,69.093,56.947Zm-26.91-31.21A73.49,73.49,0,0,1,54.757,43.257a13.867,13.867,0,0,0-1.81,26.978,16.373,16.373,0,0,1-11.325,4.025,16.065,16.065,0,0,1-11.456-5.4,17.246,17.246,0,0,1-4.391-12.677,36.912,36.912,0,0,1,4.864-14.915A14.655,14.655,0,0,1,31.8,47.4a.867.867,0,1,0,1.733,0c0-10.212,6.654-10.4,6.933-10.4a.867.867,0,0,0,0-1.733,6.558,6.558,0,0,1-3.393-1.245A6.826,6.826,0,0,1,35.982,33,74.106,74.106,0,0,1,42.183,25.738ZM32.667,30.66a10.565,10.565,0,0,0,1.446,2.793.643.643,0,0,0,.043.065,8.643,8.643,0,0,0,3.12,2.616,9.2,9.2,0,0,0-4.609,5.474,10.658,10.658,0,0,0-1.283-2.549.805.805,0,0,0-.1-.152,8.678,8.678,0,0,0-3.222-2.773A9.2,9.2,0,0,0,32.667,30.66Z" fill="#0f75bc"/><path d="M39.755,69.947C31,68.356,30.1,58.992,30.066,58.594a.87.87,0,0,0-1.733.145c.01.11,1.04,11.083,11.109,12.913a.879.879,0,0,0,.158.015.867.867,0,0,0,.154-1.72Z" fill="#0f75bc"/></g></g></svg>
